X: 1
T: Dixie Hoedown
C: Sandy Hofferth
R: reel
Z: 2020 John Chambers <jc:trillian.mit.edu>
S: https://www.facebook.com/groups/Fiddletuneoftheday/
S: https://www.facebook.com/groups/Fiddletuneoftheday/photos/
M: C|
L: 1/8
K: G
dc |:\
B2Bc BAGF | EDE2 c2c2 | B2Bc BAGG | ABAF D2dc |
BABc BAGF | EDEG c2cc | BAGB AGF2 |1 G2GG G2 dc :|2 G2GG B2d2 |
|:\
g4 g4 | f3g agf2 | e2ef gfe2 | d8 | D2DE FEFG |
[1 AGAA dcBA | GFGA BABc | dBdd [g2B2][g2B2] :|\
[2 AGAA d3B- | BAG2 AGF2 | G3G G4 |]
